X:1
T:Si bona suscepimus
T:Si bona suscepimus
T:Anonymous
T:Source : Trium vocum cantiones---Nürnberg---J.Petreius---1541. Editor : André Vierendeels (12/05/16).
T:Notes : Original clefs :C1, C4, F4 Original note values have been halved Square brackets indicate ligatures
T:©
T:©
T:©
T:©
T:©
T:©
T:©
C:Anonymous
Z:©
%%score [ 1 2 3 ]
L:1/8
Q:1/4=100
M:2/2
K:F
V:1 treble nm="Soprano" snm="S"
V:2 treble-8 nm="Tenor" snm="T"
V:3 bass nm="Bass" snm="B"
V:1
 z8 | z8 | z8 | z8 | F8 | F4 G4 | A6 A2 | A4 B4 | A4 G2 A2- | AGFE F4 | E3 D G4 | G4 F4 | G6 FE | %13
w: ||||Si|bo- na|_ su-|sce- *||||||
w: |||||||||||||
 D2 C2 D4 | C8- | C8 | z8 | z8 | G4 A4- | A2 A2 A3 F | G2 A3 G G2 | F3 E/D/ E3 F | GA G4 FE | %23
w: * * pi-|mus|_|||de ma-|* nu Do- *||||
w: ||||||||||
 DC D2 C4- | C4 z4 | E4 F4 | D4 E4- | E4 z4 | E4 F4 | D4 E3 F | G2 A3 G B2 | BAGF E3 D | G6 F2 | %33
w: * * mi- ni,|_|ma- la|au- tem,|_|ma- la|au- tem _|_ qua- * *|re _ _ _ non su-|sti- ne-|
w: ||||||||||
 F6 ED | E4 F4- | F4 z4 | c6 A2 | A8 | B6 G2 | G4 z4 | z4 c4- | c2 A2 A4- | A4 B4- | B2 G2 G4 | %44
w: a- * *|* mu?|_|Do- mi-|nus|de- *|dir,|Do-|* mi- nus|_ ab-|* stu- li,|
w: |||||||||||
 z8 | z2 A2 c4- | c2 A2 A2 A2 | B6 G2 | G4 z4 | G4 A4 | G4 F4- | F2 ED E4 | z2 G2 F2 E2 | %53
w: |sic- ut|_ Do- mi- no|pla- cu-|it,|i- ta|fa- ctum|_ _ _ est,|sit no- men|
w: |||||||||
 F2 D2 E4- | E4 z4 | z8 | z2 c2 B2 A2 | B2 G2 A3 G | FE G3 F F2- | F2 E2 F4 | z2 c2 B2 A2 | %61
w: Do- mi- ni,|_|||||||
w: |||sit no- men|Do- mi- ni _|_ _ be- ne di-|* * ctum,|sit no- men|
 B2 G2 A3 G | FE G4 F2- | F2 E2 F4- | F8 |] %65
w: ||||
w: Do- mi- ni _|_ _ be- ne|_ di- ctum.|_|
V:2
 z8 | z8 | F8 | F4 G4 | A6 A2 | A4 B4 | A3 B c2 d2- | dc f4 e2 | f4 z2 c2 | d4 B4 | c4 B2 c2- | %11
w: ||Si|bo- na|_ su-|sce- *||* * * pi-|mus de|ma- nu|Do- * *|
 cBAG A4 | G8 | B8 | A8 | z4 G4 | A6 A2 | A6 GF | G2 G2 F4 | c6 c2 | c4 A4 | B4 c4 | G4 B4- | %23
w: |mi-||ni,|de|ma- nu|Do- * *|* mi- ni,|Do- mi-|ni, de|ma- nu|Do- mi-|
 B4 A4 | z4 G4 | A4 F4 | G8 | z4 G4 | A4 F4 | G8 | z2 c2 d4 | B4 c4- | c4 A4 | B4 G4- | G4 F4- | %35
w: * ni,|ma-|la au-|tem,|ma-|la au-|tem|qua- re|non su-|* sti-|ne- a-|mus? _|
 F8- | F4 z4 | f6 d2 | d4 e4- | e2 c2 c4- | c4 z4 | z4 f4- | f2 d2 d4 | e6 c2 | c8 | z4 z2 c2 | %46
w: _||Do- mi-|nus de-|* * dit,|_|Do-|* mi- nus|ab- stu-|lit,|sic-|
 f6 d2 | d2 d2 e4- | e2 c2 c4- | c4 z4 | c4 B2 A2 | B4 G4 | z2 G2 A2 G2 | A2 B2 c3 B | %54
w: ut Do-|mi- no pla-|* cu- it,|_|i- ta fa-|ctum est,|sit no- men|Do- mi- ni, _|
 G2 c2 B2 A2 | B2 G2 F4 | c4 d2 c2 | d2 e2 f3 e | d2 c2 B2 A2 | G4 F4 | c4 d2 c2 | d2 e2 f3 e | %62
w: _ sit no- men|Do- mi- ni,|sit no- men|Do- mi- ni _|_ be- ne- di-|* ctum,|sit no- men|Do- mi- ni _|
 d2 c2 B2 A2 | G4 F4- | F8 |] %65
w: _ be- ne- di-|* dtum.|_|
V:3
 F,8 | F,4 G,4 | A,6 A,2 | A,4 B,4 | A,3 G, F,E, D,2- | D,C, F,4 E,2 | F,8 | D,4 G,4 | %8
w: Si|bo- na|_ su-|sce- *||||* pi-|
 F,4 E,2 F,2- | F,E,D,C, D,4 | C,4 F,,2 C,2- | C,D, E,2 D,4 | G,,8 | z4 G,,4 | A,,3 B,, C,3 D, | %15
w: mus de ma-|* * * * nu|Do- * *|* * * mi-|ni,|de|ma- * * *|
 E,2 F,4 E,2 | F,3 E, D,2 C,2- | C,B,,A,,G,, F,,2 F,2- | F,2 E,2 F,4- | F,4 z2 F,2 | E,2 F,4 E,2 | %21
w: ||* * * * nu Do-|* mi- ni,|_ de|ma- nu Do-|
 D,4 C,4- | C,2 B,,2 G,,4- | G,,4 A,,4- | A,,4 z4 | C,4 D,4 | B,,4 C,4- | C,4 z4 | C,4 D,4 | %29
w: |* * mi-|* ni,|_|ma- la|au- tem,|_|ma- la|
 B,,4 C,3 D, | E,2 F,2 D,2 G,2- | G,F,E,D, C,4 | z2 C,2 D,4 | B,,4 C,4- | C,4 F,4- | F,4 C4- | %36
w: au- tem _|_ qua- re non|_ _ _ _ _|su- sti-|ne- a-|* mus?|_ Do-|
 C2 A,2 A,3 G,/F,/ | F,3 E,/D,/ D,4 | G,6 C,2 | C,4 z4 | C6 A,2 | A,2 G,F, F,2 E,D, | D,4 G,4- | %43
w: * mi- nus _ _|_ _ _ _|de- *|dit,|Do- mi-|nus _ _ _ _ _|_ ab-|
 G,2 C,2 C,4 | z2 F,2 C4- | C2 A,2 A,2 G,F, | F,2 E,D, D,4 | G,6 C,2 | C,4 z4 | C,4 F,4 | C,4 D,4 | %51
w: * stu- lit,|sic- ut|_ Do- mi- no _|_ _ _ _|pla- cu-|it,|i- ta|fa- *|
 B,,4 C,4- | C,4 z4 | z8 | z2 C,2 D,2 C,2 | D,2 E,2 F,4- | F,4 z4 | z2 C,2 F,4- | F,2 E,3 D, F,2 | %59
w: ctum est,|_||sit no- men|Do- mi- ni,|_|be- ne-||
 C,4 F,4- | F,4 z4 | z2 C,2 F,4- | F,2 E,3 D, F,2 | C,4 F,4- | F,8 |] %65
w: di- ctum,|_|be- ne-||di- ctum.|_|

